collections/new_signs/svg/D1.6_3.svg

<?xml version="1.0" encoding="iso-8859-1"?>
<!-- Generator: Adobe Illustrator 16.0.0, SVG Export Plug-In . SVG Version: 6.00 Build 0)  -->
<!DOCTYPE svg PUBLIC "-//W3C//DTD SVG 1.1//EN" "http://www.w3.org/Graphics/SVG/1.1/DTD/svg11.dtd">
<svg version="1.1" id="Layer_1" xmlns="http://www.w3.org/2000/svg" xmlns:xlink="http://www.w3.org/1999/xlink" x="0px" y="0px"
	 width="425.197px" height="425.196px" viewBox="0 0 425.197 425.196" style="enable-background:new 0 0 425.197 425.196;"
	 xml:space="preserve">
<g id="CIRCLE_2_">
	<path style="fill:#FFFFFF;stroke:#005EB8;stroke-width:0.5;stroke-miterlimit:10;" d="M411.025,212.601
		c0-109.588-88.84-198.428-198.428-198.428S14.172,103.013,14.172,212.601c0,109.583,88.837,198.423,198.425,198.423
		S411.025,322.184,411.025,212.601L411.025,212.601z"/>
</g>
<g id="CIRCLE_3_">
	<path style="fill:#005EB8;" d="M401.723,212.601c0-104.45-84.676-189.126-189.126-189.126
		c-104.45,0-189.124,84.676-189.124,189.126c0,104.449,84.674,189.121,189.124,189.121
		C317.047,401.722,401.723,317.05,401.723,212.601L401.723,212.601z"/>
</g>
<g id="LWPOLYLINE_1_">
	<path style="fill:#FFFFFF;" d="M191.592,203.667c19.021-8.027,41.009-3.728,55.603,10.865l51.225,51.221v-54.807l27.903,27.903
		v76.734h-76.727l-27.903-27.903H276.5l-51.225-51.221c-7.702-7.707-20.201-7.707-27.903,0c-3.701,3.697-5.779,8.716-5.779,13.947
		v117.209h-31.006V112.549l-38.752,38.756v-39.466l54.259-54.26l54.251,54.255v39.457l-38.752-38.748V203.667z"/>
</g>
</svg>

<?xml version="1.0" encoding="UTF-8" standalone="no"?>
<!-- Generator: Adobe Illustrator 16.0.0, SVG Export Plug-In . SVG Version: 6.00 Build 0)  -->

<svg
   xmlns:dc="http://purl.org/dc/elements/1.1/"
   xmlns:cc="http://creativecommons.org/ns#"
   xmlns:rdf="http://www.w3.org/1999/02/22-rdf-syntax-ns#"
   xmlns:svg="http://www.w3.org/2000/svg"
   xmlns="http://www.w3.org/2000/svg"
   xmlns:sodipodi="http://sodipodi.sourceforge.net/DTD/sodipodi-0.dtd"
   xmlns:inkscape="http://www.inkscape.org/namespaces/inkscape"
   version="1.1"
   id="Layer_1"
   x="0px"
   y="0px"
   width="397.353"
   height="397.35101"
   viewBox="0 0 397.35301 397.351"
   xml:space="preserve"
   sodipodi:docname="D1.6_3.svg"
   inkscape:version="0.92.5 (2060ec1f9f, 2020-04-08)"><metadata
   id="metadata205"><rdf:RDF><cc:Work
       rdf:about=""><dc:format>image/svg+xml</dc:format><dc:type
         rdf:resource="http://purl.org/dc/dcmitype/StillImage" /></cc:Work></rdf:RDF></metadata><defs
   id="defs203" /><sodipodi:namedview
   pagecolor="#ffffff"
   bordercolor="#666666"
   borderopacity="1"
   objecttolerance="10"
   gridtolerance="10"
   guidetolerance="10"
   inkscape:pageopacity="0"
   inkscape:pageshadow="2"
   inkscape:window-width="640"
   inkscape:window-height="480"
   id="namedview201"
   showgrid="false"
   inkscape:zoom="0.55503813"
   inkscape:cx="198.6765"
   inkscape:cy="198.67599"
   inkscape:window-x="0"
   inkscape:window-y="0"
   inkscape:window-maximized="0"
   inkscape:current-layer="Layer_1" />
<g
   id="CIRCLE_2_"
   transform="translate(-13.922,-13.923)">
	<path
   style="fill:#ffffff;stroke:#005eb8;stroke-width:0.5;stroke-miterlimit:10"
   d="m 411.025,212.601 c 0,-109.588 -88.84,-198.428 -198.428,-198.428 -109.588,0 -198.425,88.84 -198.425,198.428 0,109.583 88.837,198.423 198.425,198.423 109.588,0 198.428,-88.84 198.428,-198.423 z"
   id="path191"
   inkscape:connector-curvature="0" />
</g>
<g
   id="CIRCLE_3_"
   transform="translate(-13.922,-13.923)">
	<path
   style="fill:#005eb8"
   d="m 401.723,212.601 c 0,-104.45 -84.676,-189.126 -189.126,-189.126 -104.45,0 -189.124,84.676 -189.124,189.126 0,104.449 84.674,189.121 189.124,189.121 104.45,0 189.126,-84.672 189.126,-189.121 z"
   id="path194"
   inkscape:connector-curvature="0" />
</g>
<g
   id="LWPOLYLINE_1_"
   transform="translate(-13.922,-13.923)">
	<path
   style="fill:#ffffff"
   d="m 191.592,203.667 c 19.021,-8.027 41.009,-3.728 55.603,10.865 l 51.225,51.221 v -54.807 l 27.903,27.903 v 76.734 H 249.596 L 221.693,287.68 H 276.5 l -51.225,-51.221 c -7.702,-7.707 -20.201,-7.707 -27.903,0 -3.701,3.697 -5.779,8.716 -5.779,13.947 V 367.615 H 160.587 V 112.549 l -38.752,38.756 v -39.466 l 54.259,-54.26 54.251,54.255 v 39.457 l -38.752,-38.748 v 91.124 z"
   id="path197"
   inkscape:connector-curvature="0" />
</g>
</svg>
